Sources/FrostedUI/Resources/Icons.xcassets/grid24.imageset/grid-24.svg

<svg width="24" height="24" viewBox="0 0 24 24" fill="none" xmlns="http://www.w3.org/2000/svg" data-fui-icon="true">
  <path
    d="M8.5 13C9.88071 13 11 14.1193 11 15.5V18.5C11 19.8807 9.88071 21 8.5 21H5.5C4.11929 21 3 19.8807 3 18.5V15.5C3 14.1193 4.11929 13 5.5 13H8.5ZM18.5 13C19.8807 13 21 14.1193 21 15.5V18.5C21 19.8807 19.8807 21 18.5 21H15.5C14.1193 21 13 19.8807 13 18.5V15.5C13 14.1193 14.1193 13 15.5 13H18.5ZM5.5 14.5C4.94772 14.5 4.5 14.9477 4.5 15.5V18.5C4.5 19.0523 4.94772 19.5 5.5 19.5H8.5C9.05228 19.5 9.5 19.0523 9.5 18.5V15.5C9.5 14.9477 9.05228 14.5 8.5 14.5H5.5ZM15.5 14.5C14.9477 14.5 14.5 14.9477 14.5 15.5V18.5C14.5 19.0523 14.9477 19.5 15.5 19.5H18.5C19.0523 19.5 19.5 19.0523 19.5 18.5V15.5C19.5 14.9477 19.0523 14.5 18.5 14.5H15.5ZM8.5 3C9.88071 3 11 4.11929 11 5.5V8.5C11 9.88071 9.88071 11 8.5 11H5.5C4.11929 11 3 9.88071 3 8.5V5.5C3 4.11929 4.11929 3 5.5 3H8.5ZM18.5 3C19.8807 3 21 4.11929 21 5.5V8.5C21 9.88071 19.8807 11 18.5 11H15.5C14.1193 11 13 9.88071 13 8.5V5.5C13 4.11929 14.1193 3 15.5 3H18.5ZM5.5 4.5C4.94772 4.5 4.5 4.94772 4.5 5.5V8.5C4.5 9.05228 4.94772 9.5 5.5 9.5H8.5C9.05228 9.5 9.5 9.05228 9.5 8.5V5.5C9.5 4.94772 9.05228 4.5 8.5 4.5H5.5ZM15.5 4.5C14.9477 4.5 14.5 4.94772 14.5 5.5V8.5C14.5 9.05228 14.9477 9.5 15.5 9.5H18.5C19.0523 9.5 19.5 9.05228 19.5 8.5V5.5C19.5 4.94772 19.0523 4.5 18.5 4.5H15.5Z"
    fill="currentColor"
  />
</svg>

<svg xmlns="http://www.w3.org/2000/svg" width="24" height="24" fill="none" data-fui-icon="true" viewBox="0 0 24 24"><path fill="currentColor" d="M8.5 13a2.5 2.5 0 0 1 2.5 2.5v3A2.5 2.5 0 0 1 8.5 21h-3A2.5 2.5 0 0 1 3 18.5v-3A2.5 2.5 0 0 1 5.5 13zm10 0a2.5 2.5 0 0 1 2.5 2.5v3a2.5 2.5 0 0 1-2.5 2.5h-3a2.5 2.5 0 0 1-2.5-2.5v-3a2.5 2.5 0 0 1 2.5-2.5zm-13 1.5a1 1 0 0 0-1 1v3a1 1 0 0 0 1 1h3a1 1 0 0 0 1-1v-3a1 1 0 0 0-1-1zm10 0a1 1 0 0 0-1 1v3a1 1 0 0 0 1 1h3a1 1 0 0 0 1-1v-3a1 1 0 0 0-1-1zM8.5 3A2.5 2.5 0 0 1 11 5.5v3A2.5 2.5 0 0 1 8.5 11h-3A2.5 2.5 0 0 1 3 8.5v-3A2.5 2.5 0 0 1 5.5 3zm10 0A2.5 2.5 0 0 1 21 5.5v3a2.5 2.5 0 0 1-2.5 2.5h-3A2.5 2.5 0 0 1 13 8.5v-3A2.5 2.5 0 0 1 15.5 3zm-13 1.5a1 1 0 0 0-1 1v3a1 1 0 0 0 1 1h3a1 1 0 0 0 1-1v-3a1 1 0 0 0-1-1zm10 0a1 1 0 0 0-1 1v3a1 1 0 0 0 1 1h3a1 1 0 0 0 1-1v-3a1 1 0 0 0-1-1z"/></svg>
